X: 4
T:Capt. Corbett's Hornpipe (309)
M:4/4
L:1/8
S:Francis E. Walsh, San Francisco
R:Hornpipe
K:D
sfgs|af{a}sges dfed|scesAA sABsAG|FAdf .g.e.c.e|(3efe (3dcB A2 sfgs|
afge dfed|ceAA sABsAG|FAdf gece|d2 dd d2:|
|:cd|seAsAA fAgA|seAsAA f2 sefs|sgfgse dfec|sdcdsB A2 sAGs|
FA (3AAA sGBs (3BBB|AFAd sgfsed|cdef sgesce|d2 dd d2:||
%
% [ABC2WIN WOULD NOT HANDLE ALL THE SLURS IN THIS TUNE
%  SO I PUT IN AS MANY AS ALLOWED]

